X: 2339
T: HORNPIPE
%R: hornpipe, reel
B: James Kerr "Merry Melodies" v.2 p.37 #339
Z: 2016 John Chambers <jc:trillian.mit.edu>
M: C
L: 1/8
K: Bb
uF2 |:\
B2(BA) BFDF | B2(BA) Bcde |\
gfdB bfdB |[1,3 ABcB AFGA :|[2,4 AFGA B2 H::\
(uAB) |\
c(f=ef) d(fef) |
c(f=ef) d(fef) |\
=efgf ecde | fag=e fefd |\
c(f=ef) d(fef) | c(f=ef) d(fef) |\
=efgf ecde |f2a2 "_D.C."f2 :|
